X:1
T:Petronella
M:2/4
L:1/16
K:D
|:dA
|"D" F2AF "A7" E2AE
|"D" D2D2 D2(FA)
|"D" d2cd "G" e2d2
|"A" cdBc A2(dc)
|"D"F2AF "A7" E2AE
|"D" D2D2 D2(FA)
|"D" d2cd "A7" e2c2
|("D" d4d2):|
|:(d A)
|"D" F2fd A2af
|"Em" g2gf edcB
|"A7" A2ec A2ge
|"D" f2fd AdAF
|"D" D2fd A2af
|"Em" g2gf edcB
|"A7" A2ec Agec
|("D" d4d2):||

